-----BEGIN PGP PUBLIC KEY BLOCK-----

mQINBFocPKUBEADFULy0Xfe/9Z8lyZvS2/VdIolrh48eXF7+Pd/QxRE+GJem4FXv
drOU74PF/sln62EzeVqBAK7sysqoFTGTK0NQw6j09hFZUbxivV6h/RXrrB93glxP
i4gBcM7r24Wr8YeUr4amaiRQikBVTklxjcVRi4DppEM+epNB+R9R1Fo4hSdEA7J9
ktRIwfdur35UKSu2BK747WjdXBBgCmZVAClZy9Zd4GcB7oC6iTfzdqi2kNGkbmLW
IDSaybRcYhuMkkdrnG8bde0jbeXAXr18hBrFFyXIV/H8ibmv+wAtY5xI6WdvxYjC
PAZuV9wm63MSwaQBGGmmTjKgBGiDOKx43ttWa9U1WD9poPZGINtn/cskWUp/W4uw
TfRFPDBYhpLGDryurf9+a4EBK/byw+c8oSKuM7WorMtUhTV9OLB8wzADgMsbXew/
Od+XCQiIdHZkgjLU/rp/LvfAbabb5kinJ40duqucOZtxhH3X3KXrV+gUbDhp4eJs
QmtnzN1Ri2tziVEL+aIHKAuqeT8Xc+uZbzzPVST+VRBsU7Uin806dPA2gQXXwpAA
1jI/3Y9ovaJutjp9QQXRS+8Lo3xOW4w7hB64eTFR2C8AAg8qhgCdltox/jpuA0w9
IRCL4REYAaVA1NP6v29okUjjwyBBMJlJHeUYOElKzAhcp9gKy4sf2NK41wARAQAB
tClQYWNrYWdlIE1haW50YWluZXIgPHBhY2thZ2VzQHN0ZWxsYXIub3JnPokCTgQT
AQoAOBYhBK6vAe6myvzv3a6KpwRjgnKhNrWmBQJaHDylAhsDBQsJCAcCBhUKCQgL
AgQWAgMBAh4BAheAAAoJEARjgnKhNrWmkVsQAKJ6yYH8ZvQFdNkMFGxw4po4E99R
aqmrZ9FoAh+9Wl0MC3iSSBiZRRhYPwBRDEa1CI/0auPl5kmwqPfuBmisskN1C86m
KiLJ7cevGwxnY3Xf9EHbtbijZMzt4SPDy4x4b3YmGE7/OHQ5SzMzeGf3eSZ5EJzS
nQuWDswXYwt97+p/6KF1uTCUWDhH3xm16x5Sx/tBpLazW+zcZ31xfY0xSNdAvLSK
SZO1FJ2UXDS9fo4knm7vnYKf110yWPsfWacSotXPamnG8UoXGUjYnsn5LdBeNFOL
nzuaKupxKv+S05id6UcTDlkA/S2S542Owaq9tcEniVgDNl4/VclCvpHjbV2fKxJd
ouehZ2Mr2Gsx4AXexprEZWteA9IiVkSie8CoouSV5i5aWeaFh68xXQfeGvfJxSne
zuuzcZZXivhxjSzt6GufWyBiqTr+2/AraNyF0/BeC8DRNO8RotICogzKOFXnr4Fq
bMDh8p7PhyBnJ/GxkwlgzOkGOZnRGW7ulpoImorQhy9MgCU0KyaokyV6KMm19Q1r
WHUcWlcK9cwRtnyqImveMksdDTTeeFtJX31AOZZGz4Ao76o8hvRudSbLgwyryPVx
klOxX9L3p3h1qIERFrpHca1YWoAX9yIPFqqE8hjVMH0EfZ6gSJga59/UY0ZFsOYZ
DzeOwJylSCnv7dYZiQGzBBABCgAdFiEE5pawz/TtJIZibB7TpEF0IHalc0AFAl0L
ttQACgkQpEF0IHalc0Dznwv/ZB1CFLE389FFzPTU7RESzmlqMcsknIdsUQogPLwW
kKZ0D7gbSFO5dRAJEK8XdcGoqggt1VuL5Izjezga+H+EBk2A/7UF4JNL00sXnlx0
4nYaegZq6hG3kOm2AY9QyAw2b71n0x9h9UKJPwwUv0XNLBqR9vxXjjTI344+KRyM
T5xDNCbVYRnAmiSI5rNyx4CE9BpL71HKNY6jLCeZaEQb2wluBLV0V9WQKpa8ihkJ
Ok1Hn7/5+Aq9GhKDOhvjC4W9rvilDKiVNxXFDRnTwu4XJKLPPUoayRO0JYQF32b3
airuvTOObEREVdeOZKm3vBFmxTxtcB53s6s+/XQdPZvLcONhbwfom14Sv/LyLQNP
+YWHy9XsVVC1e3gYQEwbVRKqFGbdvp8SFtwzjUkzZ4OhcV0C3E3+7dXCasVEbBKO
YdwseTYMcsZpcAnucNPqCfphYKOTCQjIeL30jwSAD7b1ZqnF6PrGa1Cqx1StvQlm
cQRfjwK++6Q6X1pZ8MPvXIGfuQINBFocPKUBEADvUrAuuqQo2z4RnBz1g09MISwJ
YVhuRcMqNwU5p10iODX4MTUUF3ZWmQEGE1JpZ9a0B+KT7dNdTGclkxJ5nCrJIa6U
MXqwrWV+N7oaAuTPtjRAkWWtCtOQU6YhkSGCftAz1/AAjmIJE/D7RxNXUw0DKeby
9kiAwt3v2VO4fCmW2QUel3YDfw+Skri26KI3J9R2eruIgwKFIopAbhGsSll89EAu
wEHyYKcn8SQM5Q+NISR69g2Fn7KTHDpAVXl2C4XXJ8LbXUunm/lqatuwwGqys/rt
pBQEG02q5dmGUJF7dwgiLGPGMQmGAdkpvfOuQWfxA4mIQEYb6J/YcDG6QHHfSkYA
xEfHZ65XVH70EeX8Bove7Y3wsZOuZZBRB9gZfXTFKquP+Upeoao7w40N+0Q7SmcR
+eitYp9U2zzgyPQcrcuReGLU7S3UxZarLvoNqfbIgoi5hkuByrUljEZFk013xYUx
Hw0JakfzBOgthKpe/5ae9lfM7yCdQ7ok9c7zIHr2lzfI8S5DNAD/NHuqZbErhera
l1w3TWtk100/x1i1vM9W81dEXlvw6aIXY6keSP/cazC1v2v5vjA8Gm2YuEVC4G7y
Moi6yfItDjNDn5DxUaDWpO/jwKSEHA1vP3ZKu6bnF6NXlmzaYfC6iF1+rD4BMiqB
jFlNbokyrC5YwQo53wARAQABiQI2BBgBCgAgFiEErq8B7qbK/O/droqnBGOCcqE2
taYFAlocPKUCGwwACgkQBGOCcqE2tabW6w//Y8qf4e0rBfTF/KnvLCle+8BsLAPL
i/q7UsfqLuMRJ6/VZwm7l7J6jqYJW+3Pv5+mA9AqTNjxnqJ9d4/4JRxyalnMWkbD
7QaIN2rRvoyf5EagR6LHBdrCvgqxO0z5Eg2ep3K5GrF/0Wo9Cmz5xpUw70K8/VT8
/Rdf6xAhcdhvg82PWudTDOClqFoUBcxuPyFGJCd5fnaEhaCnBTw0JuSr7csE0Jfr
iOa/SS9p3ZLxsVATLT6G64zPaKnJRp70yQSrRxuqptB1oOCAKMnhc51Ge667T8wW
R3atoRb73NlZvDeldxVOgpah1XTcIncE4DEiPQETSygEX6MtASITvMvrhdDQsGF7
ZriY5xxmXkNBIezREQob1Vpl1OfdkUDVy6+2XLMQKpr+RwVKYsy81Ozis+c0BG1n
YMEs2TSWjiqiiASBUscerxyjg4yy85ts7oT876toRYgxEt+OkLzh7RN2T9FGgTX/
3y/7E94M3LHPKC5uIsbYzSpYWpBgWwZ4kf9VCq5Kq/WPeyQyAqXUcX6GgOL1tHT1
EKod7k3HbQzpmY+J65GgFeWk2diVT6MYJxRpG8dfQIZL9VCdwpasrrpkIpC4j3Ig
Vb+7Zf8E4cvgKxpmNnebeK9lJydjtcPRSPKJ5bAOlXCFAalFiO/VTfiLSdWOUfjT
7AdJfukuSTw4ECw=
=lxz1
-----END PGP PUBLIC KEY BLOCK-----
